; generated by Slic3r 1.3.1-dev on 2018-09-11 at 09:25:28

; external perimeters extrusion width = 0.30mm (1.54mm^3/s)
; perimeters extrusion width = 0.30mm (3.08mm^3/s)
; infill extrusion width = 0.30mm (3.60mm^3/s)
; solid infill extrusion width = 0.30mm (1.03mm^3/s)
; top infill extrusion width = 0.30mm (10.28mm^3/s)

M107
M190 S105 ; set bed temperature and wait for it to be reached
M104 S232 ; set temperature
G28 ; home all axes
G1 Z5 F5000 ; lift nozzle

; Filament gcode

M109 S232 ; set temperature and wait for it to be reached
G21 ; set units to millimeters
G90 ; use absolute coordinates
M82 ; use absolute distances for extrusion
G92 E0
G92 E0
G1 E-2.00000 F2400.00000
G92 E0
G1 Z-0.050 F7800.000
G1 X65.883 Y115.599 F7800.000
G1 E2.00000 F2400.00000
G1 F900
G1 X68.000 Y115.161 E2.03413
G1 X74.000 Y115.161 E2.12884
G1 X76.018 Y115.557 E2.16132
G1 X77.737 Y116.687 E2.19379
G1 X78.901 Y118.383 E2.22626
G1 X79.339 Y120.500 E2.26039
G1 X79.339 Y126.500 E2.35511
G1 X78.943 Y128.518 E2.38758
G1 X77.813 Y130.237 E2.42005
G1 X76.117 Y131.401 E2.45252
G1 X74.000 Y131.839 E2.48665
G1 X68.000 Y131.839 E2.58137
G1 X65.982 Y131.443 E2.61384
G1 X64.263 Y130.313 E2.64631
G1 X63.099 Y128.617 E2.67878
G1 X62.661 Y126.500 E2.71291
G1 X62.661 Y120.500 E2.80763
G1 X63.057 Y118.482 E2.84010
G1 X64.187 Y116.763 E2.87257
G1 X65.834 Y115.633 E2.90410
G1 X66.296 Y115.913 F7800.000
G1 F900
G1 X68.000 Y115.607 E2.93142
G1 X74.000 Y115.607 E3.02614
G1 X75.928 Y116.003 E3.05721
G1 X77.544 Y117.127 E3.08829
G1 X78.587 Y118.796 E3.11936
G1 X78.893 Y120.500 E3.14668
G1 X78.893 Y126.500 E3.24140
G1 X78.497 Y128.428 E3.27247
G1 X77.373 Y130.044 E3.30354
G1 X75.704 Y131.087 E3.33462
G1 X74.000 Y131.393 E3.36194
G1 X68.000 Y131.393 E3.45666
G1 X66.072 Y130.997 E3.48773
G1 X64.456 Y129.873 E3.51880
G1 X63.413 Y128.204 E3.54987
G1 X63.107 Y126.500 E3.57720
G1 X63.107 Y120.500 E3.67192
G1 X63.503 Y118.572 E3.70299
G1 X64.627 Y116.956 E3.73406
G1 X66.246 Y115.945 E3.76419
G1 X66.704 Y116.247 F7800.000
G1 F900
G1 X68.000 Y116.054 E3.78488
G1 X74.000 Y116.054 E3.87960
G1 X75.833 Y116.449 E3.90920
G1 X77.340 Y117.565 E3.93881
G1 X78.253 Y119.204 E3.96841
G1 X78.446 Y120.500 E3.98911
G1 X78.446 Y126.500 E4.08382
G1 X78.051 Y128.333 E4.11343
G1 X76.935 Y129.840 E4.14304
G1 X75.296 Y130.753 E4.17264
G1 X74.000 Y130.946 E4.19333
G1 X68.000 Y130.946 E4.28805
G1 X66.167 Y130.551 E4.31766
G1 X64.660 Y129.435 E4.34726
G1 X63.747 Y127.796 E4.37687
G1 X63.554 Y126.500 E4.39756
G1 X63.554 Y120.500 E4.49228
G1 X63.949 Y118.667 E4.52189
G1 X65.065 Y117.160 E4.55149
G1 X66.651 Y116.276 E4.58015
G1 E2.58015 F2400.00000
G92 E0
G1 X67.879 Y120.209 F7800.000
G1 E2.00000 F2400.00000
G1 F900
G1 X74.121 Y120.209 E2.11037
G1 X74.291 Y120.379 E2.11463
G1 X74.291 Y126.621 E2.22500
G1 X74.121 Y126.791 E2.22927
G1 X67.879 Y126.791 E2.33964
G1 X67.709 Y126.621 E2.34390
G1 X67.709 Y120.379 E2.45427
G1 X67.837 Y120.251 E2.45747
G1 E0.45747 F2400.00000
G92 E0
G1 X73.750 Y126.250 F7800.000
G1 E2.00000 F2400.00000
G1 F900
G1 X68.250 Y126.250 E2.08683
G1 X68.250 Y120.750 E2.17365
G1 X73.750 Y120.750 E2.26048
G1 X73.750 Y126.190 E2.34635
G1 X73.364 Y126.146 F7800.000
G1 X73.304 Y125.804 F7800.000
G1 F900
G1 X68.696 Y125.804 E2.41909
G1 X68.696 Y121.196 E2.49182
G1 X73.304 Y121.196 E2.56455
G1 X73.304 Y125.744 E2.63634
G1 X72.857 Y125.357 F7800.000
G1 F900
G1 X69.143 Y125.357 E2.69498
G1 X69.143 Y121.643 E2.75362
G1 X72.857 Y121.643 E2.81226
G1 X72.857 Y125.297 E2.86995
G1 X72.363 Y124.958 F7800.000
G1 F900
G1 X72.458 Y124.863 E2.87232
G1 X72.458 Y124.158 E2.88476
G1 X71.658 Y124.958 E2.90473
G1 X70.953 Y124.958 E2.91717
G1 X72.458 Y123.453 E2.95474
G1 X72.458 Y122.747 E2.96719
G1 X70.247 Y124.958 E3.02236
G1 X69.542 Y124.958 E3.03480
G1 X72.458 Y122.042 E3.10757
G1 X71.753 Y122.042 E3.12002
G1 X69.542 Y124.253 E3.17519
G1 X69.542 Y123.547 E3.18764
G1 X71.047 Y122.042 E3.22520
G1 X70.342 Y122.042 E3.23765
G1 X69.542 Y122.842 E3.25762
G1 X69.542 Y122.137 E3.27006
G1 X69.637 Y122.042 E3.27243
M104 S230 ; set temperature
G1 E1.27243 F2400.00000
G92 E0
G1 Z0.150 F7800.000
G1 X73.336 Y125.836 F7800.000
G1 E2.00000 F2400.00000
G1 F900
G1 X68.664 Y125.836 E2.03398
G1 X68.664 Y121.164 E2.06796
G1 X73.336 Y121.164 E2.10194
G1 X73.336 Y125.776 E2.13549
G1 X73.593 Y126.093 F7800.000
G1 F900
G1 X68.407 Y126.093 E2.17321
G1 X68.407 Y120.907 E2.21093
G1 X73.593 Y120.907 E2.24865
G1 X73.593 Y126.033 E2.28594
G1 X73.850 Y126.350 F7800.000
G1 F900
G1 X68.150 Y126.350 E2.32740
G1 X68.150 Y120.650 E2.36886
G1 X73.850 Y120.650 E2.41032
G1 X73.850 Y126.290 E2.45134
G1 X73.464 Y126.246 F7800.000
G1 X73.106 Y121.449 F7800.000
G1 F1200
G1 X73.051 Y121.394 E2.45193
G1 X72.673 Y121.394 E2.45479
G1 X73.106 Y121.827 E2.45941
G1 X73.106 Y122.205 E2.46227
G1 X72.295 Y121.394 E2.47094
G1 X71.918 Y121.394 E2.47380
G1 X73.106 Y122.582 E2.48651
G1 X73.106 Y122.960 E2.48936
G1 X71.540 Y121.394 E2.50612
G1 X71.162 Y121.394 E2.50897
G1 X73.106 Y123.338 E2.52977
G1 X73.106 Y123.716 E2.53262
G1 X70.784 Y121.394 E2.55746
G1 X70.406 Y121.394 E2.56032
G1 X73.106 Y124.094 E2.58919
G1 X73.106 Y124.472 E2.59205
G1 X70.028 Y121.394 E2.62497
G1 X69.650 Y121.394 E2.62783
G1 X73.106 Y124.850 E2.66479
G1 X73.106 Y125.228 E2.66764
G1 X69.272 Y121.394 E2.70865
G1 X68.894 Y121.394 E2.71150
G1 X73.106 Y125.606 E2.75655
G1 X72.728 Y125.606 E2.75940
G1 X68.894 Y121.772 E2.80041
G1 X68.894 Y122.150 E2.80326
G1 X72.350 Y125.606 E2.84022
G1 X71.972 Y125.606 E2.84308
G1 X68.894 Y122.528 E2.87600
G1 X68.894 Y122.906 E2.87886
G1 X71.594 Y125.606 E2.90773
G1 X71.216 Y125.606 E2.91059
G1 X68.894 Y123.284 E2.93543
G1 X68.894 Y123.662 E2.93828
G1 X70.838 Y125.606 E2.95908
G1 X70.460 Y125.606 E2.96194
G1 X68.894 Y124.040 E2.97869
G1 X68.894 Y124.418 E2.98155
G1 X70.082 Y125.606 E2.99425
G1 X69.705 Y125.606 E2.99711
G1 X68.894 Y124.795 E3.00578
G1 X68.894 Y125.173 E3.00864
G1 X69.327 Y125.606 E3.01327
G1 X68.949 Y125.606 E3.01612
G1 X68.894 Y125.551 E3.01671
G1 E1.01671 F2400.00000
G92 E0
G1 Z0.450 F7800.000
G1 X73.336 Y125.836 F7800.000
G1 Z0.350 F7800.000
G1 E2.00000 F2400.00000
G1 F900
G1 X68.664 Y125.836 E2.03398
G1 X68.664 Y121.164 E2.06796
G1 X73.336 Y121.164 E2.10194
G1 X73.336 Y125.776 E2.13549
G1 X73.593 Y126.093 F7800.000
G1 F900
G1 X68.407 Y126.093 E2.17321
G1 X68.407 Y120.907 E2.21093
G1 X73.593 Y120.907 E2.24865
G1 X73.593 Y126.033 E2.28594
G1 X73.850 Y126.350 F7800.000
G1 F900
G1 X68.150 Y126.350 E2.32740
G1 X68.150 Y120.650 E2.36886
G1 X73.850 Y120.650 E2.41032
G1 X73.850 Y126.290 E2.45134
G1 X73.464 Y126.246 F7800.000
G1 X73.051 Y125.606 F7800.000
G1 F1200
G1 X73.106 Y125.551 E2.45193
G1 X73.106 Y125.173 E2.45479
G1 X72.673 Y125.606 E2.45941
G1 X72.295 Y125.606 E2.46227
G1 X73.106 Y124.795 E2.47094
G1 X73.106 Y124.418 E2.47380
G1 X71.918 Y125.606 E2.48651
G1 X71.540 Y125.606 E2.48936
G1 X73.106 Y124.040 E2.50612
G1 X73.106 Y123.662 E2.50897
G1 X71.162 Y125.606 E2.52977
G1 X70.784 Y125.606 E2.53262
G1 X73.106 Y123.284 E2.55746
G1 X73.106 Y122.906 E2.56032
G1 X70.406 Y125.606 E2.58919
G1 X70.028 Y125.606 E2.59205
G1 X73.106 Y122.528 E2.62497
G1 X73.106 Y122.150 E2.62783
G1 X69.650 Y125.606 E2.66479
G1 X69.272 Y125.606 E2.66764
G1 X73.106 Y121.772 E2.70865
G1 X73.106 Y121.394 E2.71150
G1 X68.894 Y125.606 E2.75655
G1 X68.894 Y125.228 E2.75940
G1 X72.728 Y121.394 E2.80041
G1 X72.350 Y121.394 E2.80326
G1 X68.894 Y124.850 E2.84022
G1 X68.894 Y124.472 E2.84308
G1 X71.972 Y121.394 E2.87600
G1 X71.594 Y121.394 E2.87886
G1 X68.894 Y124.094 E2.90773
G1 X68.894 Y123.716 E2.91059
G1 X71.216 Y121.394 E2.93543
G1 X70.838 Y121.394 E2.93828
G1 X68.894 Y123.338 E2.95908
G1 X68.894 Y122.960 E2.96194
G1 X70.460 Y121.394 E2.97869
G1 X70.082 Y121.394 E2.98154
G1 X68.894 Y122.582 E2.99425
G1 X68.894 Y122.205 E2.99711
G1 X69.705 Y121.394 E3.00578
G1 X69.327 Y121.394 E3.00864
G1 X68.894 Y121.827 E3.01326
G1 X68.894 Y121.449 E3.01612
G1 X68.949 Y121.394 E3.01671
M106 S244.8
G1 E1.01671 F2400.00000
G92 E0
G1 Z0.650 F7800.000
G1 X73.336 Y125.836 F7800.000
G1 Z0.550 F7800.000
G1 E2.00000 F2400.00000
G1 F900
G1 X68.664 Y125.836 E2.03398
G1 X68.664 Y121.164 E2.06796
G1 X73.336 Y121.164 E2.10194
G1 X73.336 Y125.776 E2.13549
G1 X73.593 Y126.093 F7800.000
G1 F900
G1 X68.407 Y126.093 E2.17321
G1 X68.407 Y120.907 E2.21093
G1 X73.593 Y120.907 E2.24865
G1 X73.593 Y126.033 E2.28594
G1 X73.850 Y126.350 F7800.000
G1 F900
G1 X68.150 Y126.350 E2.32740
G1 X68.150 Y120.650 E2.36886
G1 X73.850 Y120.650 E2.41032
G1 X73.850 Y126.290 E2.45134
G1 X73.464 Y126.246 F7800.000
G1 X73.106 Y121.449 F7800.000
G1 F1200
G1 X73.051 Y121.394 E2.45193
G1 X72.673 Y121.394 E2.45479
G1 X73.106 Y121.827 E2.45941
G1 X73.106 Y122.205 E2.46227
G1 X72.295 Y121.394 E2.47094
G1 X71.918 Y121.394 E2.47380
G1 X73.106 Y122.582 E2.48651
G1 X73.106 Y122.960 E2.48936
G1 X71.540 Y121.394 E2.50612
G1 X71.162 Y121.394 E2.50897
G1 X73.106 Y123.338 E2.52977
G1 X73.106 Y123.716 E2.53262
G1 X70.784 Y121.394 E2.55746
G1 X70.406 Y121.394 E2.56032
G1 X73.106 Y124.094 E2.58919
G1 X73.106 Y124.472 E2.59205
G1 X70.028 Y121.394 E2.62497
G1 X69.650 Y121.394 E2.62783
G1 X73.106 Y124.850 E2.66479
G1 X73.106 Y125.228 E2.66764
G1 X69.272 Y121.394 E2.70864
G1 X68.894 Y121.394 E2.71150
G1 X73.106 Y125.606 E2.75654
G1 X72.728 Y125.606 E2.75940
G1 X68.894 Y121.772 E2.80040
G1 X68.894 Y122.150 E2.80326
G1 X72.350 Y125.606 E2.84022
G1 X71.972 Y125.606 E2.84308
G1 X68.894 Y122.528 E2.87600
G1 X68.894 Y122.906 E2.87885
G1 X71.594 Y125.606 E2.90773
G1 X71.216 Y125.606 E2.91059
G1 X68.894 Y123.284 E2.93542
G1 X68.894 Y123.662 E2.93828
G1 X70.838 Y125.606 E2.95907
G1 X70.460 Y125.606 E2.96193
G1 X68.894 Y124.040 E2.97868
G1 X68.894 Y124.418 E2.98154
G1 X70.082 Y125.606 E2.99425
G1 X69.705 Y125.606 E2.99711
G1 X68.894 Y124.795 E3.00578
G1 X68.894 Y125.173 E3.00863
G1 X69.327 Y125.606 E3.01326
G1 X68.949 Y125.606 E3.01612
G1 X68.894 Y125.551 E3.01670
G1 E1.01670 F2400.00000
G92 E0
G1 Z0.850 F7800.000
G1 X73.336 Y125.836 F7800.000
G1 Z0.750 F7800.000
G1 E2.00000 F2400.00000
G1 F900
G1 X68.664 Y125.836 E2.03398
G1 X68.664 Y121.164 E2.06796
G1 X73.336 Y121.164 E2.10194
G1 X73.336 Y125.776 E2.13549
G1 X73.593 Y126.093 F7800.000
G1 F900
G1 X68.407 Y126.093 E2.17321
G1 X68.407 Y120.907 E2.21093
G1 X73.593 Y120.907 E2.24865
G1 X73.593 Y126.033 E2.28594
G1 X73.850 Y126.350 F7800.000
G1 F900
G1 X68.150 Y126.350 E2.32740
G1 X68.150 Y120.650 E2.36886
G1 X73.850 Y120.650 E2.41032
G1 X73.850 Y126.290 E2.45134
G1 X73.464 Y126.246 F7800.000
G1 X73.051 Y125.606 F7800.000
G1 F1200
G1 X73.106 Y125.551 E2.45193
G1 X73.106 Y125.173 E2.45479
G1 X72.673 Y125.606 E2.45941
G1 X72.295 Y125.606 E2.46227
G1 X73.106 Y124.795 E2.47094
G1 X73.106 Y124.418 E2.47380
G1 X71.918 Y125.606 E2.48651
G1 X71.540 Y125.606 E2.48936
G1 X73.106 Y124.040 E2.50612
G1 X73.106 Y123.662 E2.50897
G1 X71.162 Y125.606 E2.52977
G1 X70.784 Y125.606 E2.53262
G1 X73.106 Y123.284 E2.55746
G1 X73.106 Y122.906 E2.56032
G1 X70.406 Y125.606 E2.58919
G1 X70.028 Y125.606 E2.59205
G1 X73.106 Y122.528 E2.62497
G1 X73.106 Y122.150 E2.62783
G1 X69.650 Y125.606 E2.66478
G1 X69.272 Y125.606 E2.66764
G1 X73.106 Y121.772 E2.70864
G1 X73.106 Y121.394 E2.71150
G1 X68.894 Y125.606 E2.75654
G1 X68.894 Y125.228 E2.75940
G1 X72.728 Y121.394 E2.80040
G1 X72.350 Y121.394 E2.80326
G1 X68.894 Y124.850 E2.84022
G1 X68.894 Y124.472 E2.84308
G1 X71.972 Y121.394 E2.87600
G1 X71.594 Y121.394 E2.87885
G1 X68.894 Y124.094 E2.90773
G1 X68.894 Y123.716 E2.91059
G1 X71.216 Y121.394 E2.93542
G1 X70.838 Y121.394 E2.93828
G1 X68.894 Y123.338 E2.95907
G1 X68.894 Y122.960 E2.96193
G1 X70.460 Y121.394 E2.97868
G1 X70.082 Y121.394 E2.98154
G1 X68.894 Y122.582 E2.99425
G1 X68.894 Y122.205 E2.99711
G1 X69.705 Y121.394 E3.00578
G1 X69.327 Y121.394 E3.00863
G1 X68.894 Y121.827 E3.01326
G1 X68.894 Y121.449 E3.01612
G1 X68.949 Y121.394 E3.01670
G1 E1.01670 F2400.00000
G92 E0
G1 Z1.050 F7800.000
G1 X73.336 Y125.836 F7800.000
G1 Z0.950 F7800.000
G1 E2.00000 F2400.00000
G1 F900
G1 X68.664 Y125.836 E2.03398
G1 X68.664 Y121.164 E2.06796
G1 X73.336 Y121.164 E2.10194
G1 X73.336 Y125.776 E2.13549
G1 X73.593 Y126.093 F7800.000
G1 F900
G1 X68.407 Y126.093 E2.17321
G1 X68.407 Y120.907 E2.21093
G1 X73.593 Y120.907 E2.24865
G1 X73.593 Y126.033 E2.28594
G1 X73.850 Y126.350 F7800.000
G1 F900
G1 X68.150 Y126.350 E2.32740
G1 X68.150 Y120.650 E2.36886
G1 X73.850 Y120.650 E2.41032
G1 X73.850 Y126.290 E2.45134
G1 X73.464 Y126.246 F7800.000
G1 X73.106 Y121.449 F7800.000
G1 F1200
G1 X73.051 Y121.394 E2.45193
G1 X72.673 Y121.394 E2.45479
G1 X73.106 Y121.827 E2.45941
G1 X73.106 Y122.205 E2.46227
G1 X72.295 Y121.394 E2.47094
G1 X71.918 Y121.394 E2.47380
G1 X73.106 Y122.582 E2.48651
G1 X73.106 Y122.960 E2.48936
G1 X71.540 Y121.394 E2.50612
G1 X71.162 Y121.394 E2.50897
G1 X73.106 Y123.338 E2.52977
G1 X73.106 Y123.716 E2.53262
G1 X70.784 Y121.394 E2.55746
G1 X70.406 Y121.394 E2.56032
G1 X73.106 Y124.094 E2.58919
G1 X73.106 Y124.472 E2.59205
G1 X70.028 Y121.394 E2.62497
G1 X69.650 Y121.394 E2.62783
G1 X73.106 Y124.850 E2.66479
G1 X73.106 Y125.228 E2.66764
G1 X69.272 Y121.394 E2.70864
G1 X68.894 Y121.394 E2.71150
G1 X73.106 Y125.606 E2.75654
G1 X72.728 Y125.606 E2.75940
G1 X68.894 Y121.772 E2.80040
G1 X68.894 Y122.150 E2.80326
G1 X72.350 Y125.606 E2.84022
G1 X71.972 Y125.606 E2.84308
G1 X68.894 Y122.528 E2.87600
G1 X68.894 Y122.906 E2.87885
G1 X71.594 Y125.606 E2.90773
G1 X71.216 Y125.606 E2.91059
G1 X68.894 Y123.284 E2.93542
G1 X68.894 Y123.662 E2.93828
G1 X70.838 Y125.606 E2.95907
G1 X70.460 Y125.606 E2.96193
G1 X68.894 Y124.040 E2.97868
G1 X68.894 Y124.418 E2.98154
G1 X70.082 Y125.606 E2.99425
G1 X69.705 Y125.606 E2.99711
G1 X68.894 Y124.795 E3.00578
G1 X68.894 Y125.173 E3.00863
G1 X69.327 Y125.606 E3.01326
G1 X68.949 Y125.606 E3.01612
G1 X68.894 Y125.551 E3.01670
G1 E1.01670 F2400.00000
G92 E0
G1 Z1.250 F7800.000
G1 X73.336 Y125.836 F7800.000
G1 Z1.150 F7800.000
G1 E2.00000 F2400.00000
G1 F900
G1 X68.664 Y125.836 E2.03398
G1 X68.664 Y121.164 E2.06796
G1 X73.336 Y121.164 E2.10194
G1 X73.336 Y125.776 E2.13549
G1 X73.593 Y126.093 F7800.000
G1 F900
G1 X68.407 Y126.093 E2.17321
G1 X68.407 Y120.907 E2.21093
G1 X73.593 Y120.907 E2.24865
G1 X73.593 Y126.033 E2.28594
G1 X73.850 Y126.350 F7800.000
G1 F900
G1 X68.150 Y126.350 E2.32740
G1 X68.150 Y120.650 E2.36886
G1 X73.850 Y120.650 E2.41032
G1 X73.850 Y126.290 E2.45134
G1 X73.464 Y126.246 F7800.000
G1 X73.051 Y125.606 F7800.000
G1 F1200
G1 X73.106 Y125.551 E2.45193
G1 X73.106 Y125.173 E2.45479
G1 X72.673 Y125.606 E2.45941
G1 X72.295 Y125.606 E2.46227
G1 X73.106 Y124.795 E2.47094
G1 X73.106 Y124.418 E2.47380
G1 X71.918 Y125.606 E2.48651
G1 X71.540 Y125.606 E2.48936
G1 X73.106 Y124.040 E2.50612
G1 X73.106 Y123.662 E2.50897
G1 X71.162 Y125.606 E2.52977
G1 X70.784 Y125.606 E2.53262
G1 X73.106 Y123.284 E2.55746
G1 X73.106 Y122.906 E2.56032
G1 X70.406 Y125.606 E2.58919
G1 X70.028 Y125.606 E2.59205
G1 X73.106 Y122.528 E2.62497
G1 X73.106 Y122.150 E2.62783
G1 X69.650 Y125.606 E2.66478
G1 X69.272 Y125.606 E2.66764
G1 X73.106 Y121.772 E2.70864
G1 X73.106 Y121.394 E2.71150
G1 X68.894 Y125.606 E2.75654
G1 X68.894 Y125.228 E2.75940
G1 X72.728 Y121.394 E2.80040
G1 X72.350 Y121.394 E2.80326
G1 X68.894 Y124.850 E2.84022
G1 X68.894 Y124.472 E2.84308
G1 X71.972 Y121.394 E2.87600
G1 X71.594 Y121.394 E2.87885
G1 X68.894 Y124.094 E2.90773
G1 X68.894 Y123.716 E2.91059
G1 X71.216 Y121.394 E2.93542
G1 X70.838 Y121.394 E2.93828
G1 X68.894 Y123.338 E2.95907
G1 X68.894 Y122.960 E2.96193
G1 X70.460 Y121.394 E2.97868
G1 X70.082 Y121.394 E2.98154
G1 X68.894 Y122.582 E2.99425
